images/chess_theme_dark.svg

<svg width="50" height="50" viewBox="0 0 50 50" fill="none" xmlns="http://www.w3.org/2000/svg">
<path fill-rule="evenodd" clip-rule="evenodd" d="M16.857 0.0543631C16.9905 0.0768299 17.3182 0.164158 17.5852 0.248457C17.8523 0.332659 18.3689 0.55723 18.7332 0.747319C19.0975 0.937407 19.7155 1.39348 20.1066 1.76096L20.8176 2.42891L21.8125 2.53158C22.3597 2.58813 23.2055 2.71746 23.692 2.81905C24.1785 2.92064 24.9699 3.11884 25.4506 3.2594C25.9312 3.39997 26.7178 3.67064 27.1984 3.86083C27.6791 4.05112 28.4875 4.42739 28.9948 4.69699C29.5022 4.96659 30.245 5.40821 30.6456 5.6785C31.0461 5.94868 31.6851 6.42518 32.0654 6.73747C32.4458 7.04966 33.1167 7.69152 33.5564 8.16382C33.9962 8.63601 34.6083 9.3741 34.9169 9.8039C35.2255 10.2337 35.726 11.0305 36.029 11.5745C36.332 12.1185 36.7757 13.0537 37.0147 13.6528C37.2538 14.2517 37.5974 15.2848 37.7782 15.9485C37.959 16.6121 38.1954 17.6794 38.3037 18.3201C38.4118 18.9609 38.5522 20.0754 38.6157 20.797C38.6885 21.6258 38.7108 22.9907 38.6765 24.5036C38.6465 25.8206 38.5532 27.4916 38.4693 28.2169C38.3854 28.9422 38.2046 30.217 38.0676 31.0497C37.9305 31.8825 37.7947 32.6626 37.7657 32.7836L37.713 33.0033H15.8948L15.8175 32.637C15.7751 32.4356 15.7418 31.7652 15.7438 31.1474C15.7462 30.3956 15.8035 29.814 15.917 29.3891C16.0103 29.0399 16.2189 28.4685 16.3805 28.1193C16.5421 27.77 16.9096 27.1766 17.1972 26.8005C17.4847 26.4245 18.4687 25.3695 19.3837 24.4562C20.2986 23.5429 21.1914 22.5978 21.3677 22.356C21.5439 22.1143 21.7983 21.6959 21.933 21.4264C22.0677 21.1569 22.2291 20.7454 22.2915 20.5122C22.354 20.2788 22.4029 19.7081 22.4003 19.2439C22.3977 18.7797 22.3324 18.1581 22.2552 17.8627C22.1781 17.5672 22.0694 17.2055 22.0139 17.0591L21.9129 16.7928L21.4444 17.0296C21.1867 17.1598 20.4751 17.4025 19.8632 17.5688C19.2511 17.7352 18.4771 17.999 18.1431 18.1551C17.8091 18.3112 17.3066 18.5922 17.0264 18.7798C16.7463 18.9672 16.0801 19.4977 15.5461 19.9587C15.012 20.4196 14.3347 20.9168 14.041 21.0636C13.5665 21.3006 13.3985 21.3304 12.5359 21.3304C11.6727 21.3304 11.5044 21.3005 11.0202 21.0612C10.7131 20.9095 10.2553 20.558 9.97092 20.2555C9.6934 19.9603 9.37316 19.51 9.25926 19.2547C9.11322 18.9275 9.04058 18.5314 9.0131 17.9115C8.97572 17.0707 8.9931 16.9781 9.41152 15.7897C9.65214 15.1063 10.1165 13.9376 10.4434 13.1926C10.7703 12.4477 11.3269 11.3144 11.6803 10.6745C12.0337 10.0345 12.622 9.06181 12.9877 8.51293C13.3533 7.96406 13.9973 7.08492 14.4188 6.55929C14.8402 6.03367 15.2991 5.497 15.4384 5.36679C15.5777 5.23649 15.6917 5.059 15.6917 4.97216C15.6917 4.88542 15.4514 3.82889 15.1577 2.62428C14.8639 1.41966 14.6236 0.361182 14.6236 0.272096C14.6236 0.160836 14.7375 0.0911892 14.9877 0.0495767C15.188 0.0162672 15.6359 -0.00551591 15.983 0.00122414C16.3302 0.00796419 16.7235 0.0318963 16.857 0.0543631ZM40.6957 36.2947C40.8559 36.4932 41.1081 36.8339 41.2561 37.0518C41.4042 37.2696 41.6384 37.8096 41.7768 38.2517C41.9997 38.9644 42.0233 39.1748 41.985 40.1077C41.9531 40.8854 41.8851 41.3063 41.7245 41.7215L41.5071 42.2831H12.2224L12.0673 41.868C11.9819 41.6397 11.8678 41.255 11.8136 41.0133C11.7596 40.7715 11.7142 40.2792 11.7129 39.9191C11.7116 39.5592 11.7585 39.0317 11.817 38.7469C11.8756 38.4623 12.0693 37.9202 12.2476 37.5422C12.4258 37.1644 12.7529 36.6479 12.9747 36.3945L13.3778 35.9338H40.4044L40.6957 36.2947ZM40.7816 45.2931C40.8087 45.3372 41.0903 46.4143 41.4074 47.6867L41.9839 50H26.8957C14.8885 50 11.8082 49.9751 11.8103 49.8779C11.8119 49.8108 12.0658 48.7448 12.3748 47.5091L12.9364 45.2624L26.8344 45.2377C34.4783 45.224 40.7546 45.249 40.7816 45.2931Z" fill="white"/>
</svg>

<svg width="50" height="50" fill="none" xmlns="http://www.w3.org/2000/svg"><path fill-rule="evenodd" clip-rule="evenodd" d="M16.857.054c.134.023.461.11.728.194.267.085.784.31 1.148.5.364.19.982.645 1.374 1.013l.71.668.995.103a22.44 22.44 0 0 1 1.88.287c.486.102 1.278.3 1.759.44.48.141 1.267.412 1.747.602.481.19 1.29.566 1.797.836.507.27 1.25.711 1.65.981.401.27 1.04.747 1.42 1.06.38.312 1.052.954 1.491 1.426.44.472 1.052 1.21 1.36 1.64.31.43.81 1.226 1.113 1.77.303.544.747 1.48.986 2.079.239.599.582 1.632.763 2.295.181.664.417 1.731.526 2.372.108.64.248 1.755.312 2.477.072.829.095 2.194.06 3.707-.03 1.317-.123 2.988-.207 3.713-.084.725-.264 2-.401 2.833a59.959 59.959 0 0 1-.302 1.734l-.053.22H15.895l-.077-.367c-.043-.201-.076-.872-.074-1.49.002-.751.06-1.333.173-1.758.093-.35.302-.92.464-1.27.161-.349.529-.942.816-1.319.288-.376 1.272-1.43 2.187-2.344.915-.913 1.807-1.858 1.984-2.1.176-.242.43-.66.565-.93.135-.27.296-.68.358-.914.063-.233.112-.804.11-1.268-.003-.464-.069-1.086-.146-1.381a10.391 10.391 0 0 0-.241-.804l-.101-.266-.469.237c-.257.13-.969.372-1.58.539-.613.166-1.387.43-1.72.586-.335.156-.837.437-1.118.625-.28.187-.946.718-1.48 1.179-.534.46-1.211.958-1.505 1.105-.475.237-.643.266-1.505.266-.863 0-1.032-.03-1.516-.269-.307-.151-.765-.503-1.05-.805-.277-.296-.597-.746-.71-1.001-.147-.328-.22-.724-.247-1.343-.037-.841-.02-.934.399-2.122.24-.684.704-1.852 1.031-2.597.327-.745.884-1.879 1.237-2.518.354-.64.942-1.613 1.308-2.162a33.241 33.241 0 0 1 1.43-1.954c.422-.525.881-1.062 1.02-1.192.14-.13.254-.308.254-.395 0-.087-.24-1.143-.534-2.348-.294-1.204-.534-2.263-.534-2.352 0-.111.114-.18.364-.222.2-.034.648-.056.995-.049.347.007.74.03.874.053Zm23.839 36.24c.16.2.412.54.56.758.148.218.382.758.52 1.2.224.712.247.923.209 1.856-.032.777-.1 1.198-.26 1.614l-.218.561H12.222l-.155-.415a7.863 7.863 0 0 1-.253-.855 6.33 6.33 0 0 1-.101-1.094c-.001-.36.046-.887.104-1.172.059-.285.252-.827.43-1.205.179-.378.506-.894.728-1.148l.403-.46h27.026l.292.36Zm.086 9c.027.043.308 1.12.625 2.393L41.984 50H26.896c-12.008 0-15.088-.025-15.086-.122.002-.067.256-1.133.565-2.369l.561-2.247 13.898-.024c7.644-.014 13.92.011 13.948.055Z" fill="#fff"/></svg>
